X:1
T:My Mother’s Bible
T:My Mother’s Bible
T:Henry Russell
T:George Perkins Morris, 1843
T:Public Domain Courtesy of the Cyber Hymnal™
T:Public Domain Courtesy of the Cyber Hymnal™
C:Henry Russell
Z:Public Domain
Z:Courtesy of the Cyber Hymnal™
%%score 1 ( 2 3 ) 4
L:1/8
Q:1/4=105
M:6/8
K:E
V:1 treble 
V:2 treble 
V:3 treble 
V:4 bass 
V:1
"^With great feeling and expression" G | G2 G G2 G | ^^F2 F G2 G | G2 F c2 B | B3- B2 F | %5
w: 1.~This|book is all that’s|left me now! Tears|will un- bid- den|start! * With|
w: 2.~Ah,|well do I re-|mem- ber those Whose|names these re- cords|bear! * Who|
w: 3.~My|fa- ther read this|ho- ly book To|bro- thers, sis- ters|dear! * How|
w: 4.~Thou|tru- est friend man|ev- er knew! Thy|con- stan- cy I’ve|tried! * When|
 G2 G G2 G | ^^F2 F G2 G | (GG)F c2 B | E3- E2 E | E2 A A2 c | (cB)^A B2 G | G2 F c2 B | B3- B2 G | %13
w: fal- t’ring lip and|throb- bing brow I|press * it to my|heart. * For|ma- ny gen- e-|ra- * tions passed, Here|is our fam- ’ly|tree! * My|
w: round the hearth- stone|used to close, Af-|ter * the even- ing|prayer; * And|speak of what this|vol- * ume said, In|tones my heart would|thrill: * Though|
w: calm was my poor|mo- ther’s look, Who|leaned * God’s Word to|hear! * Her|an- gel face! I|see * it yet! What|throng- ing mem- ’ries|come! * A-|
w: all were false I|found Thee true, My|coun- * se- lor and|guide. * The|mines of earth no|trea- * sures give, From|me this book could|buy, * For|
 G2 G G2 G | B2 A G2 G |"^rall." G F2 c2 B | E3- E6 |] %17
w: mo- ther’s hands this|Bi- ble clasped, She|dy- ing gave it|me. *|
w: they are with the|si- lent dead, Here|are they liv- ing|still. *|
w: gain that lit- tle|group is met With-|in these halls of|home! *|
w: teach- ing me the|way to live, It|taught me how to|die. *|
V:2
 z | G,B,G G,B,G | ^A,C^^F G,B,G | A,B,F A,B,F | G,B,G G,B,G | G,B,G G,B,G | ^A,C^^F G,B,G | %7
 A,B,F A,B,F | G,B,E G,B,E | A,CE A,CE | G,B,[=G,^A,] G,B,E | A,B,F A,B,F | G,B,E G,B,E | %13
 G,B,G G,B,G | A,B,D G,B,G | A,CF A,B,D | G,B,G [G,E]6 |] %17
V:3
 x | x6 | x6 | x6 | x6 | x6 | x6 | x6 | x6 | x6 | x6 | x6 | x6 | x6 | x6 | x6 | G,3- x6 |] %17
V:4
 z | [E,,E,]3 [E,,E,]3 | [E,,E,]3 [E,,E,]3 | [B,,,B,,]3 [B,,,B,,]3 | [E,,E,]3 [E,,E,]3 | %5
 [E,,E,]3 [E,,E,]3 | [E,,E,]3 [E,,E,]3 | [B,,,B,,]3 [B,,,B,,]3 | [E,,E,]3 [E,,E,]3 | [A,,,A,,]6 | %10
 [F,,E,]3 [F,,E,]3 | [B,,,A,,]3 [B,,,A,,]3 | [E,,E,]6 | [E,,E,]3 [E,,E,]3 | [B,,,B,,]3 [E,,E,]3 | %15
 [A,,,A,,]3 [B,,,B,,]3 | [E,,E,]3- [E,,E,]6 |] %17

